synths/sDASH.svg

<svg width="480" height="480" viewBox="0 0 480 480" fill="none" xmlns="http://www.w3.org/2000/svg"><circle cx="240" cy="240" r="240" fill="url(#paint0_linear)"/><path d="M413.332 74h-44.615c-26.479 0-49.238 10.625-68.278 31.874L246.427 172h98.441l16.957-20.643c3.287-3.762 7.334-5.647 12.149-5.647h86.795a236.19 236.19 0 00-3.128-7h-83.667c-6.927 0-12.865 2.828-17.42 8.042l-.07.08L341.559 165h-80.376l44.574-54.572C323.562 90.611 344.443 81 368.717 81h51.061a240.48 240.48 0 00-6.446-7zM66.667 406h45.017c26.479 0 49.239-10.732 68.278-32.205L233.888 308h-98.686l-16.626 20.303c-3.508 3.771-7.554 5.648-12.149 5.648H19.086a238.894 238.894 0 003.114 7h84.227c6.778 0 12.614-2.87 17.274-7.88l.151-.162L138.518 315H219.1l-44.464 54.252C156.819 389.299 135.94 399 111.684 399H60.221a240.688 240.688 0 006.446 7zm394.243-72.04h-86.936c-4.603 0-8.535-1.77-11.822-5.317L345.245 308h-98.397l53.918 65.795C319.585 395.268 342.238 406 368.717 406h44.615a239.704 239.704 0 006.446-7h-51.061c-24.257 0-45.021-9.701-62.611-29.732L261.634 315h80.296l14.942 18.244.145.156c4.535 4.895 10.294 7.56 16.957 7.56h83.821a239.708 239.708 0 003.115-7zM19.23 145.71h87.197c4.816 0 8.862 1.885 12.149 5.647L135.439 172h41.187l28.614-34.922-25.278-30.873C160.923 84.741 138.269 74 112.011 74H66.667a241.47 241.47 0 00-6.446 7h51.79c24.015 0 44.794 9.694 62.624 29.748l21.557 26.328L173.312 165H138.76l-14.836-18.161-.077-.087c-4.554-5.214-10.493-8.042-17.42-8.042H22.358a238.014 238.014 0 00-3.127 7z" fill="#00D1FF"/><path d="M90.577 204.84c8.512 0 15.808 1.28 21.888 3.84 6.144 2.56 10.848 6.304 14.112 11.232 3.264 4.928 4.896 10.88 4.896 17.856 0 6.912-1.728 13.024-5.184 18.336-3.456 5.312-8.32 9.472-14.592 12.48-6.272 2.944-13.504 4.416-21.696 4.416H44.785v-68.16h45.792zm-4.608 52.224c6.08 0 10.848-1.696 14.304-5.088 3.52-3.392 5.28-7.968 5.28-13.728 0-5.504-1.728-9.792-5.184-12.864-3.456-3.136-8.064-4.704-13.824-4.704H69.361v36.384H85.97zM210.58 273l-5.28-12.96h-31.968l-5.28 12.96h-26.4l31.68-68.16h31.872l31.68 68.16H210.58zm-11.232-27.744l-4.8-11.808c-2.432-6.016-4.128-10.912-5.088-14.688h-.288c-.576 1.984-1.376 4.448-2.4 7.392s-1.92 5.376-2.688 7.296l-4.8 11.808h20.064zm92.517 30.048c-8.832 0-17.248-1.312-25.248-3.936-7.936-2.688-14.016-6.048-18.24-10.08l15.84-13.824c3.584 3.2 7.936 5.856 13.056 7.968 5.12 2.048 10.464 3.072 16.032 3.072 9.984 0 14.976-1.824 14.976-5.472 0-1.28-.544-2.208-1.632-2.784-1.024-.64-2.976-1.12-5.856-1.44l-20.352-2.4c-8.768-1.088-15.264-3.328-19.488-6.72-4.16-3.456-6.24-8.448-6.24-14.976 0-4.608 1.472-8.576 4.416-11.904 3.008-3.328 7.36-5.856 13.056-7.584 5.696-1.792 12.544-2.688 20.544-2.688 7.744 0 15.008.864 21.792 2.592 6.784 1.664 12.704 4.256 17.76 7.776l-13.536 14.4c-2.88-2.496-6.784-4.512-11.712-6.048-4.928-1.536-10.144-2.304-15.648-2.304-4.096 0-7.2.416-9.312 1.248-2.112.768-3.168 1.92-3.168 3.456 0 1.344.608 2.336 1.824 2.976 1.28.64 3.616 1.152 7.008 1.536l17.568 1.728c6.656.704 11.968 1.856 15.936 3.456 4.032 1.536 6.976 3.712 8.832 6.528 1.856 2.816 2.784 6.4 2.784 10.752 0 7.872-3.616 13.952-10.848 18.24-7.168 4.288-17.216 6.432-30.144 6.432zM436.142 273h-24.48v-26.208H378.83V273h-24.576v-68.16h24.576v25.632h32.832V204.84h24.48V273z" fill="#fff"/><defs><linearGradient id="paint0_linear" x1="240" y1="0" x2="240" y2="701.818" gradientUnits="userSpaceOnUse"><stop stop-color="#08021E"/><stop offset="1" stop-color="#1F0777"/></linearGradient></defs></svg>

<svg width="480" height="480" viewBox="0 0 480 480" fill="none" xmlns="http://www.w3.org/2000/svg">
<circle cx="240" cy="240" r="240" fill="url(#paint0_linear)"/>
<mask id="mask0" mask-type="alpha" maskUnits="userSpaceOnUse" x="0" y="0" width="480" height="480">
<circle cx="240" cy="240" r="240" fill="url(#paint1_linear)"/>
</mask>
<g mask="url(#mask0)">
<path fill-rule="evenodd" clip-rule="evenodd" d="M123.924 146.839L138.76 165H173.312L196.192 137.076L174.636 110.748C156.805 90.694 136.027 81 112.011 81H12V138.71H106.428C113.355 138.71 119.293 141.538 123.848 146.752L123.924 146.839ZM179.963 106.205L205.24 137.078L176.626 172H135.439L118.576 151.357C115.289 147.595 111.243 145.71 106.428 145.71H7.95094C7.07626 145.71 6.36061 145.433 5.82167 144.879C5.27389 144.334 5 143.717 5 143.056V76.6539C5 75.9927 5.27389 75.385 5.82167 74.831C6.36061 74.277 7.07626 74 7.95094 74H112.011C138.27 74 160.923 84.7408 179.963 106.205ZM123.852 332.909L123.701 333.071C119.042 338.081 113.205 340.951 106.428 340.951H12.3269V399H111.685C135.94 399 156.82 389.299 174.636 369.252L219.1 315H138.518L123.852 332.909ZM135.203 308H233.888L179.963 373.795C160.923 395.268 138.164 406 111.685 406H7.95094C7.07626 406 6.41363 405.723 5.9807 405.169C5.53894 404.615 5.3269 403.9 5.3269 403.007V336.605C5.3269 335.943 5.53894 335.336 5.9807 334.782C6.41363 334.228 7.07626 333.951 7.95094 333.951H106.428C111.022 333.951 115.068 332.074 118.576 328.303L135.203 308ZM362.153 328.643C365.439 332.19 369.371 333.96 373.974 333.96H472.451C473.325 333.96 473.979 334.237 474.421 334.791C474.854 335.345 475.075 336.069 475.075 336.944V403.346C475.075 404.007 474.854 404.624 474.421 405.169C473.979 405.723 473.325 406 472.451 406H368.717C342.238 406 319.585 395.268 300.766 373.795L246.848 308H345.245L362.153 328.643ZM341.93 315H261.635L306.106 369.268C323.696 389.299 344.46 399 368.717 399H468.075V340.96H373.974C367.312 340.96 361.552 338.295 357.018 333.4L356.872 333.244L341.93 315ZM361.826 151.357C365.112 147.595 369.159 145.71 373.974 145.71H472.451C473.325 145.71 473.979 145.433 474.421 144.879C474.854 144.334 475.075 143.717 475.075 143.056V76.6539C475.075 75.7693 474.854 75.108 474.421 74.6612C473.979 74.2234 473.325 74 472.451 74H368.717C342.238 74 319.479 84.6246 300.439 105.874L246.427 172H344.868L361.826 151.357ZM341.559 165L356.484 146.832L356.554 146.752C361.109 141.538 367.047 138.71 373.974 138.71H468.075V81H368.717C344.443 81 323.562 90.6107 305.758 110.428L261.183 165H341.559Z" fill="#00D1FF"/>
</g>
<path d="M90.5772 204.84C99.0892 204.84 106.385 206.12 112.465 208.68C118.609 211.24 123.313 214.984 126.577 219.912C129.841 224.84 131.473 230.792 131.473 237.768C131.473 244.68 129.745 250.792 126.289 256.104C122.833 261.416 117.969 265.576 111.697 268.584C105.425 271.528 98.1932 273 90.0012 273H44.7852V204.84H90.5772ZM85.9692 257.064C92.0492 257.064 96.8172 255.368 100.273 251.976C103.793 248.584 105.553 244.008 105.553 238.248C105.553 232.744 103.825 228.456 100.369 225.384C96.9132 222.248 92.3052 220.68 86.5452 220.68H69.3612V257.064H85.9692Z" fill="white"/>
<path d="M210.58 273L205.3 260.04H173.332L168.052 273H141.652L173.332 204.84H205.204L236.884 273H210.58ZM199.348 245.256L194.548 233.448C192.116 227.432 190.42 222.536 189.46 218.76H189.172C188.596 220.744 187.796 223.208 186.772 226.152C185.748 229.096 184.852 231.528 184.084 233.448L179.284 245.256H199.348Z" fill="white"/>
<path d="M291.865 275.304C283.033 275.304 274.617 273.992 266.617 271.368C258.681 268.68 252.601 265.32 248.377 261.288L264.217 247.464C267.801 250.664 272.153 253.32 277.273 255.432C282.393 257.48 287.737 258.504 293.305 258.504C303.289 258.504 308.281 256.68 308.281 253.032C308.281 251.752 307.737 250.824 306.649 250.248C305.625 249.608 303.673 249.128 300.793 248.808L280.441 246.408C271.673 245.32 265.177 243.08 260.953 239.688C256.793 236.232 254.713 231.24 254.713 224.712C254.713 220.104 256.185 216.136 259.129 212.808C262.137 209.48 266.489 206.952 272.185 205.224C277.881 203.432 284.729 202.536 292.729 202.536C300.473 202.536 307.737 203.4 314.521 205.128C321.305 206.792 327.225 209.384 332.281 212.904L318.745 227.304C315.865 224.808 311.961 222.792 307.033 221.256C302.105 219.72 296.889 218.952 291.385 218.952C287.289 218.952 284.185 219.368 282.073 220.2C279.961 220.968 278.905 222.12 278.905 223.656C278.905 225 279.513 225.992 280.729 226.632C282.009 227.272 284.345 227.784 287.737 228.168L305.305 229.896C311.961 230.6 317.273 231.752 321.241 233.352C325.273 234.888 328.217 237.064 330.073 239.88C331.929 242.696 332.857 246.28 332.857 250.632C332.857 258.504 329.241 264.584 322.009 268.872C314.841 273.16 304.793 275.304 291.865 275.304Z" fill="white"/>
<path d="M436.142 273H411.662V246.792H378.83V273H354.254V204.84H378.83V230.472H411.662V204.84H436.142V273Z" fill="white"/>
<defs>
<linearGradient id="paint0_linear" x1="240" y1="0" x2="240" y2="701.818" gradientUnits="userSpaceOnUse">
<stop stop-color="#08021E"/>
<stop offset="1" stop-color="#1F0777"/>
</linearGradient>
<linearGradient id="paint1_linear" x1="240" y1="0" x2="240" y2="701.818" gradientUnits="userSpaceOnUse">
<stop stop-color="#08021E"/>
<stop offset="1" stop-color="#1F0777"/>
</linearGradient>
</defs>
</svg>
